assets/icons/Phone.svg

<svg fill="none" height="18" viewBox="0 0 11 18" width="11" xmlns="http://www.w3.org/2000/svg"><path clip-rule="evenodd" d="m6.33333 15.0893c0 .4695-.37333.8491-.83333.8491s-.83333-.3796-.83333-.8491c0-.4696.37333-.8491.83333-.8491s.83333.3795.83333.8491zm.5-12.45795c0 .2819-.22333.50946-.5.50946h-1.66666c-.27667 0-.5-.22756-.5-.50946s.22333-.50861.5-.50861h1.66666c.27667 0 .5.22671.5.50861zm3.16667 13.16095c0 .6556-.52333 1.1896-1.16667 1.1896h-6.66666c-.64334 0-1.16667-.534-1.16667-1.1896v-13.5855c0-.65465.52333-1.18873 1.16667-1.18873h6.66666c.64334 0 1.16667.53408 1.16667 1.18873zm-1.16667-15.7923h-6.66666c-1.195003 0-2.16667.990047-2.16667 2.2068v13.5855c0 1.2177.971667 2.2077 2.16667 2.2077h6.66666c1.19497 0 2.16667-.99 2.16667-2.2077v-13.5855c0-1.216753-.9717-2.2068-2.16667-2.2068z" fill="#626262" fill-rule="evenodd"/></svg>

<svg width="11" height="18" viewBox="0 0 11 18" fill="none" xmlns="http://www.w3.org/2000/svg">
<path fill-rule="evenodd" clip-rule="evenodd" d="M6.33333 15.0893C6.33333 15.5588 5.96 15.9384 5.5 15.9384C5.04 15.9384 4.66667 15.5588 4.66667 15.0893C4.66667 14.6197 5.04 14.2402 5.5 14.2402C5.96 14.2402 6.33333 14.6197 6.33333 15.0893ZM6.83333 2.63135C6.83333 2.91325 6.61 3.14081 6.33333 3.14081H4.66667C4.39 3.14081 4.16667 2.91325 4.16667 2.63135C4.16667 2.34945 4.39 2.12274 4.66667 2.12274H6.33333C6.61 2.12274 6.83333 2.34945 6.83333 2.63135ZM10 15.7923C10 16.4479 9.47667 16.9819 8.83333 16.9819H2.16667C1.52333 16.9819 1 16.4479 1 15.7923V2.2068C1 1.55215 1.52333 1.01807 2.16667 1.01807H8.83333C9.47667 1.01807 10 1.55215 10 2.2068V15.7923ZM8.83333 0H2.16667C0.971667 0 0 0.990047 0 2.2068V15.7923C0 17.01 0.971667 18 2.16667 18H8.83333C10.0283 18 11 17.01 11 15.7923V2.2068C11 0.990047 10.0283 0 8.83333 0Z" fill="#626262"/>
</svg>
